pro/src/icons/full-go-top.svg

<svg width="48" height="48" viewBox="0 0 48 48" fill="none" xmlns="http://www.w3.org/2000/svg">
<path id="icon" fill-rule="evenodd" clip-rule="evenodd" d="M34.5 12C35.3284 12 36 11.3284 36 10.5C36 9.67157 35.3284 9 34.5 9H13.5C12.6716 9 12 9.67157 12 10.5C12 11.3284 12.6716 12 13.5 12H34.5ZM33.4675 26.2856C32.7574 26.9957 31.6062 26.9957 30.8962 26.2856L25.8016 21.1911L25.8182 37.1818C25.8182 38.186 25.0042 39 24 39C22.9958 39 22.1818 38.186 22.1818 37.1818L22.1653 21.2242L17.1038 26.2856C16.3938 26.9957 15.2426 26.9957 14.5325 26.2856C13.8225 25.5756 13.8225 24.4244 14.5325 23.7144L22.7144 15.5325C23.4244 14.8225 24.5756 14.8225 25.2856 15.5325L33.4675 23.7144C34.1775 24.4244 34.1775 25.5756 33.4675 26.2856Z" fill="currentColor"/>
</svg>

<svg xmlns="http://www.w3.org/2000/svg" width="48" height="48" fill="none"><path id="icon" fill="currentColor" fill-rule="evenodd" d="M34.5 12a1.5 1.5 0 0 0 0-3h-21a1.5 1.5 0 0 0 0 3zm-1.032 14.286c-.71.71-1.862.71-2.572 0l-5.094-5.095.016 15.99a1.818 1.818 0 1 1-3.636 0l-.017-15.957-5.061 5.062a1.818 1.818 0 1 1-2.571-2.572l8.181-8.181c.71-.71 1.862-.71 2.572 0l8.182 8.181c.71.71.71 1.862 0 2.572" clip-rule="evenodd"/></svg>
